svgs/regular/plane-prop.svg

<svg xmlns="http://www.w3.org/2000/svg" viewBox="0 0 576 512"><!--! Font Awesome Pro 6.0.0-alpha3 by @fontawesome - https://fontawesome.com License - https://fontawesome.com/license (Commercial License) --><path d="M468 176h-105L356.1 128H368l-.0021 16c0 8.836 7.164 16 16 16s16-7.164 16-16v-32c8.836 0 16-7.164 16-16c0-8.838-7.165-16-16-16v-32c0-8.838-7.164-16-16-16s-16 7.162-16 16L368 64h-21.04l-6.205-43.39C339.1 8.781 328.9 0 317 0h-58C247.1 0 236.9 8.781 235.3 20.61L229 64H224C206.3 64 192 78.33 192 96c0 16.26 12.31 29.15 28.02 31.2L212.2 181.8L149.8 186.6L144.7 155.5C142.5 139.8 128.9 128 113.1 128H74.94C59.13 128 45.5 139.8 43.34 155.1L34.56 210.1C14.64 215.1 0 234.2 0 256s14.64 40.01 34.56 45.86l8.723 54.68C45.5 372.2 59.13 384 74.94 384h38.13c15.81 0 29.44-11.81 31.59-26.97l5.188-31.59l62.38 4.781l7.799 54.58C204.3 386.8 192 399.7 192 416c0 17.67 14.33 32 32 32h5.049l6.201 43.41C236.9 503.2 247.1 512 259 512h58c11.94 0 22.06-8.781 23.75-20.59L346.1 448H368l-.0021 16c0 8.836 7.164 16 16 16s16-7.164 16-16v-32c8.836 0 16-7.164 16-16c0-8.838-7.165-16-16-16v-32c0-8.838-7.164-16-16-16s-16 7.162-16 16L368 384h-11.89l6.863-48H468C506.1 336 576 305.6 576 256S506.1 176 468 176zM468 288h-146.7l-25.16 176H279.8L254.3 285.3L109.6 274.2L99.47 336H88.61L77.18 264.7l-29.11-8.537l29.11-8.537L88.61 176h10.84l10.2 61.79l144.6-11.12L279.8 48h16.36l25.16 176H468C492.1 224 528 244.1 528 256S492.1 288 468 288z"/></svg>

<svg xmlns="http://www.w3.org/2000/svg" viewBox="0 0 576 512"><!-- Font Awesome Pro 6.0.0-alpha2 by @fontawesome - https://fontawesome.com License - https://fontawesome.com/license (Commercial License) --><path d="M468 176H362.969L356.105 128H368V144C368 152.836 375.164 160 384 160S400 152.836 400 144V112C408.836 112 416 104.836 416 96C416 87.162 408.836 80 400 80V48C400 39.162 392.836 32 384 32S368 39.162 368 48V64H346.955L340.75 20.609C339.062 8.781 328.938 0 317 0H259C247.062 0 236.938 8.781 235.25 20.609L229.049 64H224C206.326 64 192 78.326 192 96C192 112.26 204.312 125.154 220.018 127.195L212.219 181.766L149.844 186.562L144.719 155.5C142.5 139.812 128.875 128 113.062 128H74.938C59.125 128 45.5 139.812 43.344 155.094L34.559 210.145C14.637 215.986 0 234.189 0 256S14.639 296.014 34.559 301.855L43.281 356.531C45.5 372.188 59.125 384 74.938 384H113.062C128.875 384 142.5 372.188 144.656 357.031L149.844 325.438L212.219 330.219L220.018 384.803C204.312 386.844 192 399.738 192 416C192 433.672 206.326 448 224 448H229.049L235.25 491.406C236.938 503.219 247.062 512 259 512H317C328.938 512 339.062 503.219 340.75 491.406L346.955 448H368V464C368 472.836 375.164 480 384 480S400 472.836 400 464V432C408.836 432 416 424.836 416 416C416 407.162 408.836 400 400 400V368C400 359.162 392.836 352 384 352S368 359.162 368 368V384H356.105L362.969 336H468C506.062 336 576 305.625 576 256S506.062 176 468 176ZM468 288H321.344L315.453 329.205L296.182 464H279.822L259.736 323.43L254.289 285.303L215.889 282.359L153.514 277.578L109.613 274.213L102.479 317.66L99.473 336H88.613L81.959 294.293L77.18 264.742L48.066 256.205L77.178 247.668L81.959 217.709L88.609 176H99.453L102.484 194.377L109.648 237.795L153.525 234.42L215.9 229.623L254.289 226.672L259.736 188.557L279.824 48H296.18L315.453 182.793L321.344 224H468C492.133 224 528 244.98 528 256S492.133 288 468 288Z"/></svg>
